X:169
T:John Stenson's No. 2
Z: id:dc-reel-156
M:C
L:1/8
K:A Major
cB|ABcA B2cB|ABcA BAFB|ABcA B3f|e2cA BAFB|!
ABcA B2cB|ABcA BAFA|d3c dfed|cdBc A2:|!
ef|e2cd edcd|edcA BAFf|e2cd edcA|BdcA BAFf|!
e2cd edcd|edcA BAFA|d3c dfed|cdBc A2:|!

